X:00
D:6 O, reptreet
Z:id:hn-polka-66
M:4/8
L:1/8
K:F
EF/A/ AB|AB AB/A/|B/A/B/A/ GF|1 FG GE:|2 D2 DE||
P:Cariatsins
B2 ~B4|1 A2 A2:|2 BA Bd|fa/f/ ed|B2 Bc/B/|df ed|FG Ad|BA BA|DA AB:| d>BG | BG FA/B/|de AB/d/|fo ed|ef ef/f/|dB cA:|2 Gd B2:|2 BA DG||

-----------------------------------------------------
m1 = sample(model, T=0.5, max_length=2_000)
